!!!!SEGMENT: pl-sa--357-a-vii-117_mrozowski-tadeusz--regina-caeli.krn
!!!cenid: 17xx:326
!!!COM: Mrozowski, Tadeusz
!!!COM-rismID: pe30020313
!!!CDT: <1790->1810
!!!CNT:
!!!OTL: Regina caeli
!!!PDT:
!!!AGN: Sacred
!!!SMS-siglum: PL-SA
!!!SMS-shelfmark: 357/A VII 117
!!!SMS-shelfwork: W
!!!NIFC-rismSourceID:
!!!NIFC-rismChildID:
!!!NIFC-islandoraID:
!!!URL-pdf-islandora:
!!!URL-scan: https://bc.bdsandomierz.pl/dlibra/publication/1661/edition/1629/content @EN{Scan in the Sandomierz Diocese Digital Library} @PL{Skany w portalu Cyfrowa Biblioteka Diecezjalna w Sandomierzu}
!!!ONB-nifc:
!!!AIN: 1 alto 1 empty 2 violn 1 vox
!!!key:
**kern	**kern	**dynam	**kern	**dynam	**kern	**text	**kern	**text
*part5	*part4	*part4	*part3	*part3	*part2	*part2	*part1	*part1
*group2	*group2	*	*group2	*	*group1	*	*group1	*
*staff5	*staff4	*	*staff3	*	*staff2	*staff2	*staff1	*staff1
*Iempty	*Ivioln	*	*Ivioln	*	*Ialto	*	*Ivox	*
*I"Baſso.	*I"Violino Secundo	*	*I"Violino Primo	*	*I"alto.	*	*I"Canto	*
*I'b	*I'vl 2	*	*I'vl 1	*	*I'A	*	*I'S	*
*clefF4	*clefG2	*	*clefG2	*	*clefC3	*	*clefC1	*
*k[]	*k[]	*	*k[]	*	*k[]	*	*k[]	*
*C:	*C:	*	*C:	*	*C:	*	*C:	*
*M2/2	*M2/2	*	*M2/2	*	*M2/2	*	*M2/2	*
*met(c|)	*met(c|)	*	*met(c|)	*	*met(c|)	*	*met(c|)	*
!LO:TX:b:i:t=Regina	!LO:TX:b:i:t=Regina Caeli	!	!LO:TX:b:i:t=Regina Caeli	!	!	!	!	!
!LO:TX:a:i:t=Andante	!LO:TX:a:t=Andante	!	!LO:TX:a:t=Andante	!	!LO:TX:a:t=andante	!	!LO:TX:a:t=Andante	!
4GG/	4e/	.	4g/	.	4r	.	4g/	Re-
=1	=1	=1	=1	=1	=1	=1	=1	=1
*	*	*	*2\right	*below	*	*	*2\right	*
!	!	!	!	!LO:DY:rj:t=pp.	!LO:TX:a:t=2	!	!	!
2C/	2e/	.	2cc\	pp	0r	.	2cc\	-gi-
2C/	2e/	.	2cc\	.	.	.	2cc\	-na
=2	=2	=2	=2	=2	=2	=2	=2	=2
2C/	4e/	.	4cc\	.	.	.	4cc\	Cae-
.	8b/L	.	8dd\L	.	.	.	8dd\L	.
.	8cc/J	.	8ee\J	.	.	.	8ee\J	.
4r	4dd\	.	4ff\	.	.	.	4ff\	-li
4C/	4cc\	.	4ee\	.	.	.	4ee\	le-
=3	=3	=3	=3	=3	=3	=3	=3	=3
4GG/	4f/	.	4dd\	.	2r	.	4dd\	-ta-
4C/	4e/	.	4cc\	.	.	.	4cc\	-re
2r	4r	.	4r	.	4r	.	4r	.
!	!	!	!	!LO:DY:t=for.	!	!	!LO:TX:a:t=e:problem=wysokość poprawiana	!
.	4cc\	.	4ee\	f	4cc\	Le-	4ee\	le-
=4	=4	=4	=4	=4	=4	=4	=4	=4
!LO:TX:a:t=P:problem=takt zapisany powtórką, łuk na górze i adnotacja "bis"	!	!	!	!	!	!	!	!
4GG/	4f/	.	4dd\	.	4g\	-ta-	4dd\	-ta-
4C/	4e/	.	4cc\	.	4e\	-re	4cc\	-re
2r	4r	.	4r	.	4r	.	4r	.
!	!	!	!	!LO:DY:t=pia	!LO:SIC:v:s=4d	!	!	!
.	4b\	.	4dd\	p	4e\	Re-	4dd\	Re-
!	!	!	!	!	!	!	!LO:LB:g=original	!
=5	=5	=5	=5	=5	=5	=5	=5	=5
*	*2\right	*	*	*	*2\right	*	*	*
2C/	2cc\	.	2ee\	.	2cc\	-gi-	2ee\	-gi-
2C/	2cc\	.	2ee\	.	2cc\	-na	2ee\	-na
=6	=6	=6	=6	=6	=6	=6	=6	=6
2C/	4cc\	.	4ee\	.	4cc\	Cae-	4ee\	Cae-
.	8dd\L	.	8ff\L	.	8dd\L	-li	8ff\L	.
.	8ee\J	.	8gg\J	.	8ee\J	.	8gg\J	.
4r	4ff\	.	4aa\	.	4ff\	.	4aa\	-li
4C/	4ee\	.	4gg\	.	4ee\	le-	4gg\	le-
=7	=7	=7	=7	=7	=7	=7	=7	=7
!	!	!	!	!LO:DY:t=for	!	!	!	!
4GG/	4dd\	.	4ff\	f	4dd\	-ta-	4ff\	-ta-
4C/	4cc\	.	4ee\	.	4cc\	-re	4ee\	-re
4r	4r	.	4r	.	4r	.	4r	.
!	!	!	!	!	!LO:SIC:v:l:s=le-	!	!	!
4C/	4ee\	.	4gg\	.	4ee\	a	4gg\	le-
!	!	!	!LO:LB:g=original	!	!	!	!	!
=8	=8	=8	=8	=8	=8	=8	=8	=8
!LO:TX:a:t=P:problem=takt zapisany powtórką, łuk na górze i adnotacja "bis"	!	!	!	!	!LO:TX:a:t=P:problem=takt zapisany powtórką, nad nim łuk i adnotacja "bis"	!	!	!
4GG/	4dd\	.	4ff\	.	4dd\	ta-	4ff\	-ta-
4C/	4cc\	.	4ee\	.	4cc\	-re	4ee\	-re,
4r	4r	.	4r	.	4r	.	4r	.
4C/	4cc\	.	4ee\	.	4ee\	a-	4ee\	A-
!	!LO:LB:g=original	!	!	!	!LO:LB:g=original	!	!	!
=9	=9	=9	=9	=9	=9	=9	=9	=9
!LO:TX:a:t=P:problem=przed tym taktem dwa skreślone takty	!	!	!	!	!	!	!	!
4GG/	8b\L	.	8dd\L	p	8b\L	.	8dd\L	.
!	!	!LO:DY:t=p.	!	!	!	!	!	!
.	8cc\	p	8ee\	.	8cc\	.	8ee\	.
4G\	8b\	.	8dd\	.	8b\	.	8dd\	.
.	8cc\J	.	8ee\J	.	8cc\J	.	8ee\J	.
4GG/	4dd\	.	4ff\	.	4dd\	.	4ff\	.
4G\	4r	.	4r	.	4r	.	4r	.
!LO:LB:g=original	!	!	!	!	!	!	!LO:LB:g=original	!
=10	=10	=10	=10	=10	=10	=10	=10	=10
4GG/	4r	.	4r	.	4r	.	4r	.
4G\	4b\	.	4dd\	.	4b\	.	4dd\	.
4GG/	4dd\	.	4ff\	.	4dd\	.	4ff\	.
4G\	4b\	.	4dd\	.	4b\	.	4dd\	.
=11	=11	=11	=11	=11	=11	=11	=11	=11
4C/	8cc\L	.	8ee\L	.	8cc\L	.	8ee\L	.
.	8dd\	.	8ff\	.	8dd\	.	8ff\	.
4c\	8cc\	.	8ee\	.	8cc\	.	8ee\	.
.	8dd\J	.	8ff\J	.	8dd\J	.	8ff\J	.
4C/	4ee\	.	4gg\	.	4ee\	.	4gg\	.
4c\	4r	.	4r	.	4r	.	4r	.
=12	=12	=12	=12	=12	=12	=12	=12	=12
4C/	4r	.	4r	.	4r	.	4r	.
4c\	4cc\	.	4ee\	.	4cc\	.	4ee\	.
4C/	4ee\	.	4gg\	.	4ee\	.	4gg\	.
4c\	4cc\	.	4ee\	.	4cc\	.	4ee\	.
=13	=13	=13	=13	=13	=13	=13	=13	=13
*2\right	*	*	*	*	*	*	*	*
2G\	4r	.	4r	.	2dd\	.	2ff\	.
.	4dd\	.	4ff\	.	.	.	.	.
2GG/	4r	.	4r	.	2b\	-le-	2dd\	-le-
.	4b\	.	4dd\	.	.	.	.	.
!	!	!	!	!	!LO:LB:g=original	!	!	!
=14	=14	=14	=14	=14	=14	=14	=14	=14
2C/	4r	.	4r	.	2cc\	-lu-	2ee\	-lu-
.	4cc\	.	4ee\	.	.	.	.	.
2C/	4r	.	4r	.	2ee\	-ia.	2gg\	-ia
.	4ee\	.	4gg\	.	.	.	.	.
!	!	!	!LO:LB:g=original	!	!	!	!	!
=15	=15	=15	=15	=15	=15	=15	=15	=15
2G\	4dd\	.	4ff\	.	4dd\	al-	4ff\	a-
.	4dd\	.	4ff\	.	4dd\	-le-	4ff\	-le-
2GG/	2b\	.	2dd\	.	2b\	-lu-	2dd\	-lu-
!	!	!	!	!	!	!	!LO:LB:g=original	!
=16	=16	=16	=16	=16	=16	=16	=16	=16
2C/	8cc\L	.	8ee\L	.	2cc\	-ia	2ee\	-ia
.	8b\	.	8dd\	.	.	.	.	.
.	8cc\	.	8ee\	.	.	.	.	.
.	8dd\J	.	8ff\J	.	.	.	.	.
2r	4ee\	.	4gg\	.	2r	.	2r	.
.	4ee\	.	4gg\	.	.	.	.	.
!	!LO:LB:g=original	!	!	!	!	!	!	!
=17	=17	=17	=17	=17	=17	=17	=17	=17
2G\	4r	.	4r	.	2dd\	al-	2ff\	a-
.	4dd\	.	4ff\	.	.	.	.	.
2GG/	4r	.	4r	.	2b\	-le-	2dd\	-le-
.	4b\	.	4dd\	.	.	.	.	.
=18	=18	=18	=18	=18	=18	=18	=18	=18
2C/	4r	.	4r	.	2cc\	-lu-	2ee\	-lu-
.	4cc\	.	4ee\	.	.	.	.	.
2C/	4r	.	4r	.	2ee\	-ia	2gg\	-ia
.	4ee\	.	4gg\	.	.	.	.	.
=19	=19	=19	=19	=19	=19	=19	=19	=19
4C/	4cc\	.	4ee\	.	4cc\	al-	4ee\	a-
4E\	4ee\	.	4gg\	.	4ee\	-le-	4gg\	-le-
4G\	4d/	.	4b\	.	4d\	-lu-	4b\	-lu-
4GG/	4f/	.	4dd\	.	4f\	.	4dd\	.
!LO:LB:g=original	!	!	!	!	!LO:LB:g=original	!	!	!
=20	=20	=20	=20	=20	=20	=20	=20	=20
!	!	!LO:DY:t=for.	!	!LO:DY:t=for.	!	!	!	!
8c\L	8cc\L	f	8cc\L	f	2e\	-ia	2cc\	-ia
8B\	8b\	.	8b\	.	.	.	.	.
8c\	8cc\	.	8cc\	.	.	.	.	.
8B\J	8b\J	.	8b\J	.	.	.	.	.
8c\L	8cc/L	.	8cc/L	.	2r	.	2r	.
8G\	8g/	.	8g/	.	.	.	.	.
8A\	8a/	.	8a/	.	.	.	.	.
8B\J	8b/J	.	8b/J	.	.	.	.	.
=21	=21	=21	=21	=21	=21	=21	=21	=21
!	!	!	!	!	!LO:TX:a::t=14.	!	!LO:TX:a:t=11.	!
8c\L	8cc\L	.	8cc\L	.	00r	.	00r	.
8B\	8b\	.	8b\	.	.	.	.	.
8c\	8cc\	.	8cc\	.	.	.	.	.
8B\J	8b\J	.	8b\J	.	.	.	.	.
8c\L	8cc/L	.	8cc/L	.	.	.	.	.
8G\	8g/	.	8g/	.	.	.	.	.
8A\	8a/	.	8a/	.	.	.	.	.
8B\J	8b/J	.	8b/J	.	.	.	.	.
!	!	!	!LO:LB:g=original	!	!	!	!	!
=22	=22	=22	=22	=22	=22	=22	=22	=22
4C/	8e/L	.	8cc\L	.	.	.	.	.
.	8d/	.	8b\	.	.	.	.	.
4r	8f/	.	(8dd\	.	.	.	.	.
.	8e/J	.	8cc\J	.	.	.	.	.
2r	8cc/L	.	8ee\L	.	.	.	.	.
.	8b/	.	8dd\	.	.	.	.	.
.	8dd/	.	8ff\	.	.	.	.	.
.	8cc/J	.	8ee\J)	.	.	.	.	.
=23	=23	=23	=23	=23	=23	=23	=23	=23
4c\	8ee\L	.	8gg\L	.	.	.	.	.
.	8dd\	.	8ff\	.	.	.	.	.
4r	8ff\	.	(8aa\	.	.	.	.	.
.	8ee\J	.	8gg\J	.	.	.	.	.
!	!LO:LB:g=original	!	!	!	!	!	!	!
!	!LO:TX:a:t=P:problem=mixed beam	!	!	!	!	!	!	!
2r	8ee\L	.	8gg\L	.	.	.	.	.
.	8dd\	.	8ff\	.	.	.	.	.
.	8f/	.	8dd\	.	.	.	.	.
.	8d/J	.	8b\J)	.	.	.	.	.
=24	=24	=24	=24	=24	=24	=24	=24	=24
4r	8e/L	.	(8cc\L	.	.	.	.	.
.	(8d/	.	8b\	.	.	.	.	.
4C/	8d/	.	8b\	.	.	.	.	.
.	8f/J	.	8dd\J	.	.	.	.	.
!LO:SIC:v:s=4F	!	!	!	!	!	!	!	!
4E/	2f/)	.	2dd\)	.	.	.	.	.
4G/	.	.	.	.	.	.	.	.
=25	=25	=25	=25	=25	=25	=25	=25	=25
4r	8f/L	.	(8dd\L	.	00r	.	00r	.
.	(8e/	.	8cc\	.	.	.	.	.
4G\	8e/	.	8cc\	.	.	.	.	.
.	8g/J)	.	8ee\J	.	.	.	.	.
4c\	2g/	.	2ee\)	.	.	.	.	.
4C/	.	.	.	.	.	.	.	.
=26	=26	=26	=26	=26	=26	=26	=26	=26
4r	8cc\L	.	(8ee\L	.	.	.	.	.
.	8b\	.	8dd\	.	.	.	.	.
4G\	8b\	.	8dd\	.	.	.	.	.
.	8dd\J	.	8ff\J)	.	.	.	.	.
4G\	2dd\	.	2ff\	.	.	.	.	.
4G\	.	.	.	.	.	.	.	.
=27	=27	=27	=27	=27	=27	=27	=27	=27
4r	8dd\L	.	8ff\L	.	.	.	.	.
.	8cc\	.	8ee\	.	.	.	.	.
4G\	8cc\	.	8ee\	.	.	.	.	.
.	8ee\J	.	8gg\J	.	.	.	.	.
4c\	2ee\	.	2gg\	.	.	.	.	.
4C/	.	.	.	.	.	.	.	.
!LO:LB:g=original	!	!	!	!	!	!	!	!
=28	=28	=28	=28	=28	=28	=28	=28	=28
*	*tremolo	*	*	*	*	*	*	*
4C/	8ee\L	.	8gg\L	.	.	.	.	.
.	8ee\	.	8ccc\	.	.	.	.	.
4c\	8ee\	.	8gg\	.	.	.	.	.
.	8ee\J	.	8gg\J	.	.	.	.	.
*	*Xtremolo	*	*	*	*	*	*	*
4C/	8ee\L	.	8gg\L	.	.	.	.	.
.	8cc\	.	8ee\	.	.	.	.	.
4c\	8ff\	.	8aa\	.	.	.	.	.
.	8ee\J	.	8gg\J	.	.	.	.	.
!	!	!	!LO:LB:g=original	!	!	!	!	!
=29	=29	=29	=29	=29	=29	=29	=29	=29
4r	8ee\L	.	8gg\L	.	00r	.	0r	.
.	(8dd\	.	8ff\	.	.	.	.	.
4G'\	8dd\	.	(8ff\	.	.	.	.	.
.	8cc\J	.	8ee\J	.	.	.	.	.
4A'\	8cc\L	.	8ee\L	.	.	.	.	.
.	8b\	.	8dd\	.	.	.	.	.
4B'\	8cc\	.	8ee\	.	.	.	.	.
.	8dd\J)	.	8ff\J)	.	.	.	.	.
!	!LO:LB:g=original	!	!	!	!	!	!	!
=30	=30	=30	=30	=30	=30	=30	=30	=30
*	*tremolo	*	*	*	*	*	*	*
4c\	8ee\L	.	8gg\L	.	.	.	.	.
.	8ee\	.	8ccc\	.	.	.	.	.
4C/	8ee\	.	(8gg\	.	.	.	.	.
.	8ee\J	.	8gg\J	.	.	.	.	.
*	*Xtremolo	*	*	*	*	*	*	*
4c\	8ee\L	.	8gg\L	.	.	.	.	.
.	8cc\	.	8ee\	.	.	.	.	.
4C/	8ff\	.	8aa\)	.	.	.	.	.
.	8ee\J	.	8gg\J	.	.	.	.	.
=31	=31	=31	=31	=31	=31	=31	=31	=31
4r	8ee\L	.	8gg\L	.	.	.	1r	.
.	(8dd\	.	(8ff\	.	.	.	.	.
4G\|	8dd\	.	8ff\	.	.	.	.	.
.	8cc\J)	.	8ee\J)	.	.	.	.	.
4A\|	8cc\L	.	8ee\L	.	.	.	.	.
.	(8b\	.	(8dd\	.	.	.	.	.
4B\|	8b\	.	8ee\	.	.	.	.	.
.	8dd\J)	.	8ff\J)	.	.	.	.	.
=32	=32	=32	=32	=32	=32	=32	=32	=32
4c\	4cc\	.	(4ee\	.	.	.	2r	.
4C/	4e/	.	4cc\	.	.	.	.	.
4C/	4e/	.	4cc\)	.	.	.	4r	.
!	!	!	!	!LO:DY:t=p.	!	!	!LO:SIC:v:l:s=Qvi-	!
4r	4r	.	4g/	p	.	.	4g/	Qqvi-
=33	=33	=33	=33	=33	=33	=33	=33	=33
!	!	!LO:DY:t=p.	!	!	!	!	!	!
2C/	2e/	p	2cc\	.	0r	.	2cc\	-am
!	!	!	!	!	!	!	!LO:SIC:v:l:s=qvem	!
2C/	2e/	.	2cc\	.	.	.	2cc\	qve-
!	!	!	!	!	!	!	!LO:LB:g=original	!
=34	=34	=34	=34	=34	=34	=34	=34	=34
2C/	4e/	.	4cc\	.	.	.	4cc\	-me-
.	8b\L	.	8dd\L	.	.	.	8dd\	-ru-
.	8cc\J	.	8ee\J	.	.	.	8ee\	-i-
4r	4dd\	.	4ff\	.	.	.	4ff\	-sti
4C/	8cc\L	.	8ee\L	.	.	.	8ee\	.
.	8cc\J	.	8ee\J	.	.	.	8ee\	por-
=35	=35	=35	=35	=35	=35	=35	=35	=35
4GG/	4f/	.	4dd\	.	2r	.	4dd\	-ta-
4C/	4e/	.	4cc\	.	.	.	4cc\	-re
2r	4r	.	4r	.	4r	.	4r	.
.	4cc\	.	4ee\	.	4cc\	por-	4ee\	por-
!	!	!	!LO:LB:g=original	!	!	!	!	!
=36	=36	=36	=36	=36	=36	=36	=36	=36
!LO:TX:a:t=P:problem=takt zapisany powtórką, łuk na górze i adnotacja "bis"	!	!	!	!	!	!	!	!
4GG/	4f/	.	4dd\	.	4g\	-ta-	4dd\	-ta-
4C/	4e/	.	4cc\	.	4e\	-re	4cc\	-re
2r	4r	.	4r	.	4r	.	4r	.
!	!	!	!	!	!LO:SIC:v:s=4d	!	!	!
.	4b\	.	4dd\	.	4e\	qvi-	4dd\	qvi-
=37	=37	=37	=37	=37	=37	=37	=37	=37
2C/	2cc\	.	2ee\	.	2cc\	-am	2ee\	-am
!	!	!	!	!	!	!	!LO:SIC:v:l:s=qvem	!
2C/	2cc\	.	2ee\	.	2cc\	qve-	2ee\	qve-
!	!LO:LB:g=original	!	!	!	!	!	!LO:LB:g=original	!
=38	=38	=38	=38	=38	=38	=38	=38	=38
2C/	4cc\	.	4ee\	.	4cc\	-me-	4ee\	-me-
.	8dd\L	.	8ff\L	.	8dd\L	-ru-	8ff\	-ru-
.	8ee\J	.	8gg\J	.	8ee\J	-i-	8gg\	-i-
4r	4ff\	.	4aa\	.	4ff\	-sti	4aa\	-sti
4C/	4ee\	.	8gg\L	.	8cc\L	.	8gg\	.
.	.	.	8gg\J	.	8cc\J	por-	8gg\	por-
!LO:LB:g=original	!	!	!	!	!LO:LB:g=original	!	!	!
=39	=39	=39	=39	=39	=39	=39	=39	=39
4GG/	4dd\	.	4ff\	.	4dd\	-ta-	4ff\	-ta-
4C/	4cc\	.	4ee\	.	4cc\	-re	4ee\	-re
4r	4r	.	4r	.	4r	.	4r	.
4C/	4ee\	.	4gg\	.	4ee\	por-	4gg\	por-
=40	=40	=40	=40	=40	=40	=40	=40	=40
!LO:TX:a:t=P:problem=takt zapisany powtórką, łuk na górze i adnotacja "bis"	!	!	!	!	!	!	!	!
4GG/	4dd\	.	4ff\	.	4dd\	-ta-	4ff\	-ta-
4C/	4cc\	.	4ee\	.	4cc\	-re	4ee\	-re
4r	4r	.	4r	.	4r	.	4r	.
4C/	4cc\	.	4ee\	.	4cc\	a-	4ee\	a-
=41	=41	=41	=41	=41	=41	=41	=41	=41
!LO:TX:a:t=P:problem=przed tym taktem dwa skreślone takty	!	!	!	!	!	!	!	!
4GG/	8b\L	.	8dd\L	.	8b\L	.	8dd\L	.
.	8cc\	.	8ee\	.	8cc\J	.	8ee\	.
4G\	8b\	.	8dd\	.	8b\L	.	8dd\	.
.	8cc\J	.	8ee\J	.	8cc\J	.	8ee\J	.
4GG/	4dd\	.	4ff\	.	4dd\	.	4ff\	.
4G\	4r	.	4r	.	4r	.	4r	.
!	!	!	!	!	!	!	!LO:LB:g=original	!
=42	=42	=42	=42	=42	=42	=42	=42	=42
4GG/	4r	.	4r	.	4r	.	4r	.
4G\	4b\	.	4dd\	.	4b\	.	4dd\	.
4GG/	4dd\	.	4ff\	.	4dd\	.	4ff\	.
4G\	4b\	.	4dd\	.	4b\	.	4dd\	.
!	!	!	!LO:LB:g=original	!	!LO:LB:g=original	!	!	!
=43	=43	=43	=43	=43	=43	=43	=43	=43
4C/	8cc\L	.	8ee\L	.	8cc\L	.	8ee\L	.
.	8dd\	.	8ff\	.	8dd\	.	8ff\	.
4c\	8cc\	.	8ee\	.	8cc\	.	8ee\	.
.	8dd\J	.	8ff\J	.	8dd\J	.	8ff\J	.
4C/	4ee\	.	4gg\	.	4ee\	.	4gg\	.
4c\	4r	.	4r	.	4r	.	4r	.
=44	=44	=44	=44	=44	=44	=44	=44	=44
4C/	4r	.	4r	.	4r	.	4r	.
4c\	4cc\	.	4ee\	.	4cc\	.	4ee\	.
4C/	4ee\	.	4gg\	.	4ee\	.	4gg\	.
4c\	4cc\	.	4ee\	.	4cc\	.	4ee\	.
!	!LO:LB:g=original	!	!	!	!	!	!	!
=45	=45	=45	=45	=45	=45	=45	=45	=45
4G\	4dd\	.	4ff\	.	4dd\	.	4ff\	=-
4G\	4b\	.	4dd\	.	4b\	.	4dd\	.
4G\	4cc\	.	4ee\	.	4cc\	.	4ee\	.
4G\	4e/	.	4cc\	.	4e\	-le-	4cc\	-le-
=46	=46	=46	=46	=46	=46	=46	=46	=46
2G\	2cc\	.	2ee\	.	2ee\	-lu-	2ee\	-lu-
2GG/	2b\	.	2dd\	.	2b\	-ia	2dd\	-ia.
!LO:LB:g=original	!	!	!	!	!	!	!	!
=47	=47	=47	=47	=47	=47	=47	=47	=47
!	!	!	!	!LO:DY:t=for=	!	!	!	!
4G\|	4g/|	.	4g/|	f	4g\	Re-	4g\	Re-
4c\|	4cc/|	.	4cc/|	.	4cc\	-su-	4cc\	-su-
4B\|	4b/|	.	4b/|	.	4b\	-rec-	4b\	-re-
4c\|	4cc/|	.	4cc/|	.	4cc\	-xit	4cc\	-xit
!	!	!	!	!	!LO:LB:g=original	!	!LO:LB:g=original	!
=48	=48	=48	=48	=48	=48	=48	=48	=48
4G\|	4g/|	.	4g'/	.	4g\	ſi-	4g\	ſi-
4c\|	4cc/|	.	4cc'/	.	4cc\	-cut	4cc\	-cut
4B\|	4b/|	.	4b'/	.	4b\	di-	4b\	di-
4c\|	4cc/|	.	4cc'/	.	4cc\	-xit	4cc\	-xit
=49	=49	=49	=49	=49	=49	=49	=49	=49
*	*	*	*	*	*	*ij	*	*ij
4A\|	4a/|	.	4a'/	.	4a\	re-	4a\	re-
4d\|	4dd/|	.	4dd'/	.	4dd\	-sur-	4dd\	-sur-
4c#X\|	4cc#X/|	.	4cc#X'/	.	4cc#X\	-re-	4cc#X\	-re-
4d\|	4dd/|	.	4dd'/	.	4dd\	-xit	4dd\	-xit
=50	=50	=50	=50	=50	=50	=50	=50	=50
4A\|	4a/|	.	4a'/	.	4a\	si-	4a\	si-
4d\|	4dd/|	.	4dd'/	.	4dd\	-cut	4dd\	-cut
4c#X\|	4cc#X/|	.	4cc#X'/	.	4cc#X\	di-	4cc#X\	di-
4d\|	4dd/|	.	4dd'/	.	4dd\	-xit	4dd\	-xit
!	!	!	!LO:LB:g=original	!	!	!	!	!
=51	=51	=51	=51	=51	=51	=51	=51	=51
4B\|	4b'/	.	4b'\	.	4b\	re-	4b\	re-
4e\|	4ee'/	.	4ee'\	.	4ee\	-sur-	4ee\	-sur-
4d\|	4dd'/	.	4dd'\	.	4dd\	-re-	4dd\	-re-
4e\|	4ee'/	.	4ee'\	.	4ee\	-xit	4ee\	-xit
=52	=52	=52	=52	=52	=52	=52	=52	=52
4B\|	4b'/	.	4b'\	.	4b\	si-	4b\	si-
4e\|	4ee'/	.	4ee'\	.	4ee\	-cut	4ee\	-cut
4d\|	4dd'/	.	4dd'\	.	4dd\	di-	4dd\	di-
4e\|	4ee'/	.	4ee'\	.	4ee\	-xit	4ee\	-xit
*	*	*	*	*	*	*Xij	*	*Xij
!	!	!	!	!	!LO:LB:g=original	!	!LO:LB:g=original	!
=53	=53	=53	=53	=53	=53	=53	=53	=53
4G\	2dd\	.	2ff\	.	2dd\	.	2ff\	a-
4GG/	.	.	.	.	.	.	.	.
4C/	4cc\	.	4ee\	.	4cc\	.	4ee\	.
4C/	4cc\	.	4ee\	.	4cc\	.	4ee\	-le-
!LO:LB:g=original	!LO:LB:g=original	!	!	!	!	!	!	!
=54	=54	=54	=54	=54	=54	=54	=54	=54
4C/	4cc\	.	4ee\	.	4cc\	.	4ee\	-lu-
4GG/	4b\	.	4dd\	.	4b\	.	4dd\	-ja
2r	4r	.	4r	.	2r	.	4r	.
.	4ee\	.	4gg\	.	.	.	4gg\	a-
=55	=55	=55	=55	=55	=55	=55	=55	=55
!	!	!	!	!	!LO:TX:a:t=P:problem=takty 56-57 zapisane powtórką	!	!	!
4G\	2dd\	.	2ff\	.	2dd\	.	2ff\	.
4GG/	.	.	.	.	.	.	.	.
4C/	4cc\	.	4ee\	.	4cc\	.	4ee\	.
4C/	4cc\	.	4ee\	.	4cc\	.	4ee\	-le-
=56	=56	=56	=56	=56	=56	=56	=56	=56
4C/	4cc\	.	4ee\	.	4cc\	.	4ee\	-lu-
4GG/	4b\	.	4dd\	.	4b\	.	4dd\	-ia
2r	4r	.	4r	.	2r	.	2r	.
.	4e/	.	4g/	.	.	.	.	.
=57	=57	=57	=57	=57	=57	=57	=57	=57
*	*tremolo	*	*	*	*	*	*	*
!	!	!	!	!	!LO:TX:a:t=20.	!	!LO:TX:a:t=17.	!
2C/	8e/L	.	4cc\	.	00r	.	00r	.
.	8g/	.	.	.	.	.	.	.
.	8e/	.	4cc\	.	.	.	.	.
.	8g/J	.	.	.	.	.	.	.
!	!LO:TX:b:t=P:problem=niepewna interpretacja łuków	!	!	!	!	!	!	!
2r	(8e/L	.	4cc\	.	.	.	.	.
.	8g/	.	.	.	.	.	.	.
.	8e/	.	8dd\L	.	.	.	.	.
.	8g/J)	.	8ee\J	.	.	.	.	.
=58	=58	=58	=58	=58	=58	=58	=58	=58
2GG/	8f/L	.	4ff\	.	.	.	.	.
.	8g/	.	.	.	.	.	.	.
.	8f/	.	4ff\	.	.	.	.	.
.	(8g/J	.	.	.	.	.	.	.
2r	(8f/L)	.	8ff\L	.	.	.	.	.
.	8g/	.	8ee\	.	.	.	.	.
.	8f/	.	8dd\	.	.	.	.	.
.	8g/J)	.	8cc\J	.	.	.	.	.
!	!	!	!LO:LB:g=original	!	!	!	!	!
=59	=59	=59	=59	=59	=59	=59	=59	=59
2C/	8e/L	.	4gg\	.	.	.	.	.
.	8g/	.	.	.	.	.	.	.
.	8e/	.	4gg\	.	.	.	.	.
.	(8g/J	.	.	.	.	.	.	.
2r	(8e/L)	.	8gg\L	.	.	.	.	.
.	8g/	.	8ff\	.	.	.	.	.
.	8e/	.	8ee\	.	.	.	.	.
.	8g/J)	.	8dd\J	.	.	.	.	.
=60	=60	=60	=60	=60	=60	=60	=60	=60
2GG/	(8d/L	.	4b\	.	.	.	.	.
.	8g/	.	.	.	.	.	.	.
.	8d/	.	4b\	.	.	.	.	.
.	8g/J)	.	.	.	.	.	.	.
2r	(8d/L	.	4b\	.	.	.	.	.
.	8g/	.	.	.	.	.	.	.
.	8d/	.	8cc\L	.	.	.	.	.
.	8g/J)	.	8dd\J	.	.	.	.	.
*	*Xtremolo	*	*	*	*	*	*	*
!	!LO:LB:g=original	!	!	!	!	!	!	!
=61	=61	=61	=61	=61	=61	=61	=61	=61
4c\	4g/	.	4ee\	.	00r	.	00r	.
4G\	4e/	.	4cc\	.	.	.	.	.
4c\	4r	.	4r	.	.	.	.	.
4G\	4cc\	.	4ee\	.	.	.	.	.
=62	=62	=62	=62	=62	=62	=62	=62	=62
4B\	4dd\	.	4ff\	.	.	.	.	.
4G\	4b\	.	4dd\	.	.	.	.	.
4B\	2r	.	4r	.	.	.	.	.
!	!LO:TX:b:t=Vertatur	!	!LO:TX:b:t=Vertatur	!	!	!	!	!
4G\	.	.	4dd\	.	.	.	.	.
!	!LO:PB:g=original	!	!LO:PB:g=original	!	!	!	!	!
=63	=63	=63	=63	=63	=63	=63	=63	=63
!LO:TX:a:t=P:problem=skreślone nuty	!	!	!	!	!	!	!	!
8C/L	8c/L|	.	8cc\L	.	.	.	.	.
8D/	8d/|	.	8dd\	.	.	.	.	.
8E/	8e/|	.	8ee\	.	.	.	.	.
!	!	!LO:DY:t=for.	!	!	!	!	!	!
8C/J	8c/J|	f	8cc\J	.	.	.	.	.
8D/L	8d/L|	.	8dd\L	.	.	.	.	.
8E/	8e/|	.	8ee\	.	.	.	.	.
8F/	8f/|	.	8ff\	.	.	.	.	.
8D/J	8d/J|	.	8dd\J	.	.	.	.	.
!LO:LB:g=original	!	!	!	!	!	!	!	!
=64	=64	=64	=64	=64	=64	=64	=64	=64
8E\L	8e/L|	.	8ee\L	.	.	.	.	.
8F\	8f/|	.	8ff\	.	.	.	.	.
8G\	8g/|	.	8gg\	.	.	.	.	.
8E\J	8e/J|	.	8ee\J	.	.	.	.	.
8F\L	8f/L|	.	8ff\L	.	.	.	.	.
8G\	8g/|	.	8gg\	.	.	.	.	.
8A\	8a/|	.	8aa\	.	.	.	.	.
8F\J	8f/J|	.	8ff\J	.	.	.	.	.
=65	=65	=65	=65	=65	=65	=65	=65	=65
8C/L	8c/L|	.	8cc\L	.	00r	.	00r	.
8D/	8d/|	.	8dd\	.	.	.	.	.
8E/	8e/|	.	8ee\	.	.	.	.	.
8BB/J	8B/J|	.	8b\J	.	.	.	.	.
8C/L	8c/L|	.	8cc\L	.	.	.	.	.
8D/	8d/|	.	8dd\	.	.	.	.	.
8E/	8e/|	.	8ee\	.	.	.	.	.
8BB/J	8B/J|	.	8b\J	.	.	.	.	.
=66	=66	=66	=66	=66	=66	=66	=66	=66
!	!LO:TX:a:t=P:problem=takt zapisany powtórką, łuk na górze i adnotacja "bis"	!	!	!	!	!	!	!
8C/L	8c/L|	.	8cc\L	.	.	.	.	.
8D/	8d/|	.	8dd\	.	.	.	.	.
8E/	8e/|	.	8ee\	.	.	.	.	.
8BB/J	8B/J|	.	8b\J	.	.	.	.	.
8C/L	8c/L|	.	8cc\L	.	.	.	.	.
8D/	8d/|	.	8dd\	.	.	.	.	.
8E/	8e/|	.	8ee\	.	.	.	.	.
8BB/J	8B/J|	.	8b\J	.	.	.	.	.
=67	=67	=67	=67	=67	=67	=67	=67	=67
8c\L	8cc\L|	.	8cc\L	.	.	.	.	.
8d\	8dd\|	.	8dd\	.	.	.	.	.
8e\	8ee\|	.	8ee\	.	.	.	.	.
8d\J	8dd\J|	.	8dd\J	.	.	.	.	.
8c\L	8cc\L|	.	8cc\L	.	.	.	.	.
8B\	8b\|	.	8b\	.	.	.	.	.
8A\	8a\|	.	8a\	.	.	.	.	.
8G\J	8g\J|	.	8g\J	.	.	.	.	.
!	!	!	!LO:LB:g=original	!	!	!	!	!
=68	=68	=68	=68	=68	=68	=68	=68	=68
8A\L	8a/L|	.	8a/L	.	.	.	.	.
8B\	8b/|	.	8b/	.	.	.	.	.
8c\	8cc/|	.	8cc/	.	.	.	.	.
8B\J	8b/J|	.	8b/J	.	.	.	.	.
8A\L	8a/L|	.	8a/L	.	.	.	.	.
8G\	8g/|	.	8g/	.	.	.	.	.
8F\	8f/|	.	8f/	.	.	.	.	.
8E\J	8e/J|	.	8e/J	.	.	.	.	.
!	!LO:LB:g=original	!	!	!	!	!	!	!
=69	=69	=69	=69	=69	=69	=69	=69	=69
8F\L	8f/L	.	8f/L	.	00r	.	00r	.
8E\	8e/	.	8e/	.	.	.	.	.
8F\	8f/	.	8f/	.	.	.	.	.
8D\J	8d/J	.	8d/J	.	.	.	.	.
8G\L	8g/L	.	8g/L	.	.	.	.	.
8F\	8f/	.	8f/	.	.	.	.	.
8G\	8g/	.	8g/	.	.	.	.	.
8E\J	8e/J	.	8e/J	.	.	.	.	.
!LO:LB:g=original	!	!	!	!	!	!	!	!
=70	=70	=70	=70	=70	=70	=70	=70	=70
8A\L	8a/L	.	8a/L	.	.	.	.	.
8G\	8g/	.	8g/	.	.	.	.	.
8A\	8a/	.	8a/	.	.	.	.	.
8F\J	8f/J	.	8f/J	.	.	.	.	.
8B\L	8b/L	.	8b/L	.	.	.	.	.
8A\	8a/	.	8a/	.	.	.	.	.
8B\	8b/	.	8b/	.	.	.	.	.
8G\J	8g/J	.	8g/J	.	.	.	.	.
=71	=71	=71	=71	=71	=71	=71	=71	=71
4C/|	4c/|	.	4cc\|	.	.	.	.	.
4E/|	4e/|	.	4ee\|	.	.	.	.	.
4G/|	4g/|	.	4gg\|	.	.	.	.	.
4GG/|	4G/|	.	4g/|	.	.	.	.	.
=72	=72	=72	=72	=72	=72	=72	=72	=72
4C/|	4c/|	.	4cc\|	.	.	.	.	.
4E/|	4e/|	.	4ee\|	.	.	.	.	.
4G/|	4g/|	.	4gg\|	.	.	.	.	.
4GG/|	4G/|	.	4g/|	.	.	.	.	.
=73	=73	=73	=73	=73	=73	=73	=73	=73
!	!LO:TX:a:t=P:problem=mixed beam	!	!	!	!	!	!	!
8c'\L	8c/L|	.	8cc\L|	.	00r	.	1r	.
8c'\	8cc\|	.	8cc\|	.	.	.	.	.
8B'\	8b\|	.	8b\|	.	.	.	.	.
8c'\J	8cc\J|	.	8cc\J|	.	.	.	.	.
8G'\L	8g/L|	.	8g/L|	.	.	.	.	.
8c'\	8cc/|	.	8cc/|	.	.	.	.	.
8E'\	8e/|	.	8e/|	.	.	.	.	.
!	!	!	!	!	!	!	!LO:TX:b:t=Vertatur	!
8G'\J	8g/J|	.	8g/J|	.	.	.	.	.
!	!	!	!LO:LB:g=original	!	!	!	!LO:PB:g=original	!
=74	=74	=74	=74	=74	=74	=74	=74	=74
2C/	2c/	.	2c/	.	.	.	2r	.
2r	4r	.	4r	.	.	.	4r	.
.	4f/	.	4g/	.	.	.	4g\	O-
!	!LO:LB:g=original	!	!	!	!	!	!	!
=75	=75	=75	=75	=75	=75	=75	=75	=75
!	!	!LO:DY:t=p.	!	!LO:DY:t=piano	!	!	!	!
2C/	2e/	p	2cc\	p	.	.	2cc\	.
2C/	2e/	.	2cc\	.	.	.	2cc\	-ra
=76	=76	=76	=76	=76	=76	=76	=76	=76
2C/	4e/	.	4cc\	.	.	.	4cc\	pro
.	8b\L	.	8dd\L	.	.	.	8dd\L	.
.	8cc\J	.	8ee\J	.	.	.	8ee\J	.
4r	4dd\	.	4ff\	.	.	.	4ff\	no-
4C/	4cc\	.	4ee\	.	.	.	4ee\	-bis
=77	=77	=77	=77	=77	=77	=77	=77	=77
4GG/	4f/	.	4dd\	.	2r	.	4dd\	De-
4C/	4e/	.	4cc\	.	.	.	4cc\	-um
4r	4r	.	4r	.	4r	.	4r	.
4C/	4cc\	.	4ee\	.	4cc\	De-	4ee\	.
!LO:LB:g=original	!	!	!	!	!	!	!	!
=78	=78	=78	=78	=78	=78	=78	=78	=78
4GG/	4f/	.	4dd\	.	4g\	.	4dd\	De-
4C/	4e/	.	4cc\	.	4e\	-um	4cc\	-um
2r	4r	.	4r	.	4r	.	4r	.
!	!	!	!	!	!LO:SIC:v:s=4d	!	!	!
.	4b\	.	4dd\	.	4e\	O-	4dd\	O-
.	.	.	.	.	.	.	4qqcc/	.
!	!	!	!	!	!	!	!LO:LB:g=original	!
=79	=79	=79	=79	=79	=79	=79	=79	=79
2C/	2cc\	.	2ee\	.	2cc\	-ra	2ee\	.
2C/	2cc\	.	2ee\	.	2cc\	pro	2ee\	-ra
=80	=80	=80	=80	=80	=80	=80	=80	=80
2C/	4cc\	.	4ee\	.	4cc\	no-	4ee\	pro
.	8dd\L	.	8ff\L|	.	8dd\L	.	8ff\L	.
.	8ee\J	.	8gg\J|	.	8ee\J	.	8gg\J	.
!	!	!	!	!	!LO:LB:g=original	!	!	!
4r	4ff\	.	4aa\|	.	4ff\	.	4aa\	no-
4C/	4ee\	.	4gg\|	.	4ee\	-bis	4gg\	-bis
!	!	!	!LO:LB:g=original	!	!	!	!	!
=81	=81	=81	=81	=81	=81	=81	=81	=81
4GG/	4dd\	.	4ff\	.	4dd\	De-	4ff\	De-
4C/	4cc\	.	4ee\	.	4cc\	-um	4ee\	-um
4r	4r	.	4r	.	4r	.	4r	.
4C/	4ee\	.	4gg\	.	4ee\	.	4gg\	.
!	!LO:LB:g=original	!	!	!	!	!	!	!
=82	=82	=82	=82	=82	=82	=82	=82	=82
4GG/	4dd\	.	4ff\	.	4dd\	de-	4ff\	De-
4C/	4cc\	.	4ee\	.	4cc\	-um,	4ee\	-um
2r	4r	.	4r	.	4r	.	4r	.
!LO:TX:b:t=Vertatur	!	!	!	!	!	!	!	!
.	4cc\	.	4ee\	.	4cc\	a-	4ee\	A-
!LO:PB:g=original	!	!	!	!	!	!	!	!
=83	=83	=83	=83	=83	=83	=83	=83	=83
4GG/	8b\L	.	8dd\L	.	8b\L	.	8dd\L	.
.	8cc\	.	8ee\	.	8cc\	.	8ee\	.
4G\	8b\	.	8dd\	.	8b\	.	8dd\	.
.	8cc\J	.	8ee\J	.	8cc\J	.	8ee\J	.
4GG/	4dd\	.	4ff\	.	4dd\	.	4ff\	.
4G\	4r	.	4r	.	4r	.	4r	.
!	!	!	!	!	!	!	!LO:LB:g=original	!
=84	=84	=84	=84	=84	=84	=84	=84	=84
4GG/	4r	.	4r	.	4r	.	4r	.
4G\	4b\	.	4dd\	.	4b\	.	4dd\	.
4GG/	4dd\	.	4ff\	.	4dd\	.	4ff\	.
4G\	4b\	.	4dd\	.	4b\	.	4dd\	.
!	!	!	!	!	!LO:PB:g=original	!	!	!
=85	=85	=85	=85	=85	=85	=85	=85	=85
4C/	8cc\L	.	8ee\L	.	8cc\L	.	8ee\L	.
.	8dd\	.	8ff\	.	8dd\	.	8ff\	.
4c\	8cc\	.	8ee\	.	8cc\	.	8ee\	.
.	8dd\J	.	8ff\J	.	8dd\J	.	8ff\J	.
4C/	4ee\	.	4gg\	.	4ee\	.	4gg\	.
4c\	4r	.	4r	.	4r	.	4r	.
=86	=86	=86	=86	=86	=86	=86	=86	=86
4C/	4r	.	4r	.	4r	.	4r	.
4c\	4cc\	.	4ee\	.	4cc\	.	4ee\	.
4C/	4ee\	.	4gg\	.	4ee\	.	4gg\	.
4c\	4cc\	.	4ee\	.	4cc\	.	4ee\	.
!	!	!	!LO:LB:g=original	!	!	!	!	!
=87	=87	=87	=87	=87	=87	=87	=87	=87
2c\	4r	.	4r	.	2cc\	.	2ee-X\	-a-
.	4cc\|	.	4ee-X\	.	.	.	.	.
2B\	4r	.	4r	.	2cc\	-le-	2ee-\	-le-
.	4cc\|	.	4ee-\	.	.	.	.	.
=88	=88	=88	=88	=88	=88	=88	=88	=88
2F#X\	4r	.	4r	.	2cc\	-lu-	2ee-X\	.
.	4cc\|	.	4ee-X\	.	.	.	.	.
!	!LO:LB:g=original	!	!	!	!	!	!	!
2F#\	4r	.	4r	.	2cc\	.	2ee-\	.
.	4cc\	.	4ee-\	.	.	.	.	.
=89	=89	=89	=89	=89	=89	=89	=89	=89
4F#X\	4cc\	.	4ee-X\	.	4cc\	.	4ee-X\	-lu-
4G\	4b\	.	4dd\	.	4b\	-ia	4dd\	-ia
8G\L	2r	.	2r	.	2r	.	2r	.
8Fn\	.	.	.	.	.	.	.	.
8E\	.	.	.	.	.	.	.	.
8D\J	.	.	.	.	.	.	.	.
!LO:LB:g=original	!	!	!	!	!LO:LB:g=original	!	!LO:LB:g=original	!
=90	=90	=90	=90	=90	=90	=90	=90	=90
4C/	4cc\	.	4een\	.	4cc\	al-	4een\	al-
4c\	4cc\	.	4ee\	.	4cc\	-le-	4ee\	-le-
4B\	4b\	.	4dd\	.	4b\	-lu-	4dd\	-lu-
4G\	4dd\	.	4ff\	.	4dd\	-ia	4ff\	-ia
=91	=91	=91	=91	=91	=91	=91	=91	=91
*	*	*	*	*	*	*ij	*	*ij
4C/	4cc\	.	4ee\	.	4cc\	al-	4ee\	al-
4c\	4cc\	.	4ee\	.	4cc\	-le-	4ee\	-le-
4B\	4b\	.	4dd\	.	4b\	-lu-	4dd\	-lu-
4G\	4dd\	.	4ff\	.	4dd\	-ia	4ff\	-ia
*	*	*	*	*	*	*Xij	*	*Xij
=92	=92	=92	=92	=92	=92	=92	=92	=92
4c\|	4cc\	.	4ee\	.	4cc\	a-	4ee\	al-
4E\|	4cc\	.	4ee\	.	4cc\	-le-	4ee\	-le-
4F\|	2f/	.	2dd\	.	2g\	-lu-	2dd\	-lu-
4G\|	.	.	.	.	.	.	.	.
!	!	!	!LO:LB:g=original	!	!	!	!	!
=93	=93	=93	=93	=93	=93	=93	=93	=93
2C/	2e/	.	2cc\	.	2e\	-ia	2cc\	-ia
2r	4r	.	4r	.	4r	.	4r	.
.	4b/	.	4dd\	.	4g\	a-	4dd\	al-
=94	=94	=94	=94	=94	=94	=94	=94	=94
4C/|	4cc\	.	4ee\	.	4cc\	.	4ee\	-le-
4c\|	4cc\	.	4ee\	.	4cc\	-le-	4ee\	-lu-
4B\|	4b\	.	4dd\	.	4b\	-lu-	4dd\	-ia
4G\|	4dd\	.	4ff\	.	4dd\	-ia	4ff\	.
!	!	!	!	!	!LO:LB:g=original	!	!LO:LB:g=original	!
=95	=95	=95	=95	=95	=95	=95	=95	=95
4C/|	4cc\	.	4ee\	.	4cc\	a-	4ee\	al-
4c\|	4cc\	.	4ee\	.	4cc\	-le-	4ee\	-le-
4B\|	4b\	.	4dd\	.	4b\	-lu-	4dd\	-lu-
4G\|	4dd\	.	4ff\	.	4dd\	-ia	4ff\	-ia
!	!LO:LB:g=original	!	!	!	!	!	!	!
=96	=96	=96	=96	=96	=96	=96	=96	=96
!	!	!	!	!	!	!	!LO:TX:a:t=P:problem=przed tym taktem skreślony takt	!
4c\|	2cc\	.	2ee\	.	4cc\	a-	4ee\	al-
4C/|	.	.	.	.	4cc\	-le-	4ee\	-le-
4G\|	2f/	.	2dd\	.	2g\	-lu-	2dd\	-lu-
4GG/|	.	.	.	.	.	.	.	.
=97	=97	=97	=97	=97	=97	=97	=97	=97
2C/	2e/	.	2cc\	.	2e\	-ia	2cc\	-ia
!LO:TX:a:t=97.	!	!	!	!	!	!	!	!
2r	2r	.	2r	.	2r	.	2r	.
!	!	!	!LO:TX:a:t=97.	!	!	!	!LO:TX:a:t=97.	!
==	==	==	==	==	==	==	==	==
*-	*-	*-	*-	*-	*-	*-	*-	*-
!!!system-decoration: [g1][g2]
!!!RDF**kern: | = vertical stroke
!!!ENC: Marta Lawrence
!!!END: 2020-11-11
!!!ENC: Kamil Watkowski
!!!END: 2020-04-24
!!!YEC: Copyright 2022 Narodowy Instytut Fryderyka Chopina (https://polishscores.org)
!!!YEM: License CC-BY-4.0 (https://creativecommons.org/licenses/by/4.0)
